icon-svg/zero-motorcycles.svg

<svg xmlns="http://www.w3.org/2000/svg" fill="#44739e" viewBox="0 0 24 24"><path d="M21.653 8.883a6.253 6.253 0 0 0-4.292-5.067A16.57 16.57 0 0 0 12 3.115a22.9 22.9 0 0 0-2.669.126 10.56 10.56 0 0 0-3.682.987A6.248 6.248 0 0 0 2.384 8.6a15.8 15.8 0 0 0-.28 5.363 8.96 8.96 0 0 0 1.046 3.584 6.374 6.374 0 0 0 4.271 3.034 19.83 19.83 0 0 0 5.329.45 17 17 0 0 0 3.8-.442 6.215 6.215 0 0 0 4.691-3.926 14.19 14.19 0 0 0 .412-7.78m-16.54 9.269a.038.038 0 0 1-.054 0 .039.039 0 0 1-.011-.042c.139-.337.528-1.255.682-1.62a.176.176 0 0 0 .015-.131 6.01 6.01 0 0 1-.821-2.7 13.33 13.33 0 0 1 .238-4.509A3.527 3.527 0 0 1 7.9 6.38a15.9 15.9 0 0 1 5.316-.356c.576.074.8.294.794.736a3.6 3.6 0 0 1-.751 1.512c-1.037 1.456-7.14 8.728-8.146 9.88m13.715-3.194a3.833 3.833 0 0 1-3.476 2.993 21.1 21.1 0 0 1-3.366.262 7.37 7.37 0 0 1-1.368-.1c-.612-.134-.8-.479-.565-1.062a9.82 9.82 0 0 1 1.712-2.534c1.916-2.289 6.282-7.427 7.116-8.4a.038.038 0 0 1 .054 0 .039.039 0 0 1 .011.042c-.137.334-.541 1.128-.7 1.486a.211.211 0 0 0 .016.225 6.19 6.19 0 0 1 .8 2.8 13.6 13.6 0 0 1-.234 4.288"/></svg>

<?xml version="1.0" encoding="UTF-8"?>
<svg width="24px" fill="#44739e" height="24px" viewBox="0 0 24 24" version="1.1" xmlns="http://www.w3.org/2000/svg" xmlns:xlink="http://www.w3.org/1999/xlink">
            <path d="M 21.653,8.883 A 6.253,6.253 0 0 0 17.361,3.816 16.566,16.566 0 0 0 12,3.115 22.886,22.886 0 0 0 9.331,3.241 10.564,10.564 0 0 0 5.649,4.228 6.248,6.248 0 0 0 2.384,8.6 a 15.8,15.8 0 0 0 -0.28,5.363 8.961,8.961 0 0 0 1.046,3.584 6.374,6.374 0 0 0 4.271,3.034 19.829,19.829 0 0 0 5.329,0.45 17.007,17.007 0 0 0 3.8,-0.442 6.215,6.215 0 0 0 4.691,-3.926 14.192,14.192 0 0 0 0.412,-7.78 z m -16.54,9.269 a 0.038,0.038 0 0 1 -0.054,0 A 0.039,0.039 0 0 1 5.048,18.11 C 5.187,17.773 5.576,16.855 5.73,16.49 A 0.176,0.176 0 0 0 5.745,16.359 6.009,6.009 0 0 1 4.924,13.659 13.332,13.332 0 0 1 5.162,9.15 3.527,3.527 0 0 1 7.9,6.38 15.9,15.9 0 0 1 13.216,6.024 c 0.576,0.074 0.8,0.294 0.794,0.736 A 3.6,3.6 0 0 1 13.259,8.272 C 12.222,9.728 6.119,17 5.113,18.152 Z m 13.715,-3.194 a 3.833,3.833 0 0 1 -3.476,2.993 21.079,21.079 0 0 1 -3.366,0.262 7.372,7.372 0 0 1 -1.368,-0.1 c -0.612,-0.134 -0.8,-0.479 -0.565,-1.062 a 9.816,9.816 0 0 1 1.712,-2.534 c 1.916,-2.289 6.282,-7.427 7.116,-8.4 a 0.038,0.038 0 0 1 0.054,0 0.039,0.039 0 0 1 0.011,0.042 c -0.137,0.334 -0.541,1.128 -0.7,1.486 a 0.211,0.211 0 0 0 0.016,0.225 6.188,6.188 0 0 1 0.8,2.8 13.593,13.593 0 0 1 -0.234,4.288 z"/>

</svg>
